X:2
T:Four Brothers
C:Jimmy Giuffre
L:1/8
M:C
I:linebreak $
K:Ab
"Bb7" c=BcB cAF=D |"Bbm" DFAc"Eb7" =BGED |"Ab" CEGB"Db7" z A z E |$"Cm" G F3"F7" z2 z G |
"Bbm" AFDB,"Bo" AF=D=B, |"Cm" G2 B,=A,-"F7" A,2 z =E ||1$"Bbm" FDCB, E=B,CE- |
"Ab" E2 z2"Ao" z2 z =B :|2"Bbm" FDCB,"Eb7" E=B,CA,- |"Ab" A,2 z2"Fm" z2 z G ||$
[K:B]"C#m" GECB,"F#7" A,CEG |"B" FDEF- F2 z2 ||$[K:D]"Em" FDCB,"A7" AFGA- |"D" A4"D6" z2 z F ||
[K:C]"Dm" FEDC"G7" B,DFA |$"C" GFED"A7" ^C_BAE |"Dm" GF z C"G7" E2 DC ||
[K:Ab]"Cm" z F3"F7" z2 z "_D.C. al 3rd end." =B ||3$"Bbm" FDCB,"B7" E=B,CA,- |"Ab6" A,4 z4 |]

